X: 104
T:Garry Owen
% Nottingham Music Database
S:EF
M:6/8
K:A
P:A
a/2g/2|"A"fed cBA|"A"cdc "E7"cag|"A"fed cBA|"Bm"BcB "E7"Bag|
"A"fed cBA|"A"cdc c2e|"D"efg "A"aec|"Bm"BcB "E7"B2:|
P:B
c/2d/2|"A"e2c e2c|"A"e2c eag|"D"f2d f2d|"D"f2d f2g|
"A"a2b c'2b|"A"agf e2c|"D"efg "A"aec|"Bm"BcB "E7"B2:|<end>
<start>
